X:1
T:Adoramus te, Christe II - Perti
T:James Gibb editions
T:#
%%score [ 1 2 3 4 ]
L:1/8
Q:1/4=90
M:4/4
K:C
V:1 treble nm="Soprano" snm="S"
V:2 treble nm="Alto" snm="A"
V:3 treble-8 nm="Tenor" snm="T"
V:4 bass nm="Bass" snm="B"
V:1
"^Giacomo Antonio Perti\n(1661-1756)" c4 c4 |"^Adoramus te, Christe II" B4 B4 | c4 (BA A2- | %3
w: A- do-|ra- mus|te, Chri\- * *|
 A2 ^G2) A4 |[M:4/4] z2 c4 c2- | c2 (BA) B4 | e4 (dc c2- | c2 B2) c4 | z2 e4 d2- | d2 c4 _B2- | %10
w: * * ste,|a- do\-|* ra\- * mus|te, Chri\- * *|* * ste,|et be\-|* ne- di\-|
 B2 A (G/F/) G4 | F8 | _B4 B2 B2 | (_Bc) (dc) B4 | A4 c4 | c2 c2 (cd) (ed) | c4 B4 | B3 B c2 ^c2 | %18
w: * ci- mus * ti-|bi,|qui- a per|san\- * ctam * cru-|cem et|pas- si- o\- * nem *|tu- am|re- de- mi- sti|
 (^d2 e4 d2) | e4 z2 f2- | fe e3 d (d2- | d2 c2 B4) | B4 c4 | B4 A2 B2 | %24
w: mun\- * *|dum, re\-|* de- mi- sti mun\-||dum, re-|de- mí- sti|
[Q:1/4=89] (^G2[Q:1/4=87] A2[Q:1/4=86] B2[Q:1/4=84] A2- | %25
w: mun\- * * *|
[Q:1/4=83] A2[Q:1/4=81] ^G[Q:1/4=81]^F[Q:1/4=79] G4) |[Q:1/4=78] !fermata!A8 |] %27
w: |dum.|
V:2
 z2 A4 A2- | A2 (^G^F) G4 | A4 (=F2 D2 | E4) E4 |[M:4/4] G4 G4 | G4 G4 | c4 (A2 F2 | G4) G4 | %8
w: A- do\-|* ra\- * mus|te, Chri\- *|* ste,|a- do-|ra- mus|te, Chri\- *|* ste,|
 G2 A4 A2- | A2 A4 GF | (E2 F4 E2) | F8 | G4 G2 G2 | G2 A2 G4 | F4 A4 | A2 A2 A2 B2 | A4 ^G4 | %17
w: et be- ne\-|* di- ci- mus|ti\- * *|bi,|qui- a per|san- ctam cru-|cem et|pas- si- o- nem|tu- am|
 z2 B3 A A2- | AG (GA B4) | B4 c4 | B4 A4 | ^G2 (A4 G^F) | ^G2 B3 A A2- | A2 G2 (F4 | E8- | E8) | %26
w: re- de- mi\-|* sti mun\- * *|dum, re-|de- mi-|sti mun\- * *|dum, re- de- mi\-|* sti mun\-|||
 !fermata!E8 |] %27
w: dum.|
V:3
 e4 e4 | e4 e4 | e4 (dcBA | B4) A4 |[M:4/4][K:treble-8] e4 e4 | d4 d4 | g4 (fedc | d4) c4 | z4 f4 | %9
w: A- do-|ra- mus|te, Chri\- * * *|* ste,|a- do-|ra- mus|te, Chri\- * * *|* ste,|et|
 e3 e d3 d | c4 c4 | c8 | d4 d2 d2 | d2 d2 d4 | d4 e4 | e2 e2 e2 e2 | e4 e4 | z2 g3 ^f f2- | %18
w: be- ne- di- ci-|mus ti-|bi,|qui- a per|san- ctam cru-|cem et|pas- si- o- nem|tu- am|re- de- mi\-|
 fe (e^f g2 f2) | e4 e2 A2 | B3 e A4 | e4 ^f4 | e4 E4 | e6 (d2- | d2 cB/A/ ^GA/B/ c2 | B8) | %26
w: * sti mun\- * * *|dum, re- de-|mi- sti mun-|dum, re-|de- mi-|sti mun\-|||
 !fermata!A8 |] %27
w: dum.|
V:4
 A,4 A,,4 | E,4 E,4 | C,4 (D,2 F,2 | E,4) A,,4 |[M:4/4] C4 C,4 | G,4 G,4 | E,4 (F,2 A,2 | %7
w: A- do-|ra- mus|te, Chri\- *|* ste,|a- do-|ra- mus|te, Chri\- *|
 G,4) C,4 | z2 ^C2 D4 | A,4 _B,4 | C2 F,2 C,4 | F,8 | G,4 G,2 G,2 | _B,2 ^F,2 G,4 | D,4 A,4 | %15
w: * ste,|et be-|ne- di-|ci- mus ti-|bi,|qui- a per|san- ctam cru-|cem et|
 A,2 A,2 C2 ^G,2 | A,4 E,4 | =G,4 A,4 | B,2 C2 B,4 | E,4 (A,4 | ^G,2 =G,2 ^F,2) =F,2 | E,4 ^D,4 | %22
w: pas- si- o- nem|tu- am|re- de-|mi- sti mun-|dum, re\-|* * * de-|mi- sti|
 E,8- | E,8 | E,8 | E,8 | !fermata!A,,8 |] %27
w: mun\-||||dum.|

